X:1
T:Skippin' Cat
C:by Jack Link
L:1/8
M:C|
I:linebreak $
K:G
V:1 treble
V:1
 B,C |"G" DCB,C DCB,C | DGBG "C"c2 Bc |"G" dedc BAG=F |"C" E(C C2) C2 B,C |$
 "G"DCB,C DCB,C | DGBG "C"cdef |"D" gage dBAc |1 "G" B(G G2) G2 :|2 "G"BG G2 G4 |:$
 "D"A3 d2 "G" B2d2 |"D" ABcA "G"B(G G2) |"D" A3 c Bdef | gedc "G"B(G G2) |$
 "D"A3 c2 "G"B2d2 |"D" ABcA "G"Bdef| "D" gagf dBAc |1"G" B(G G2) G4 :|2 "G"B(G G2) G2 |]
